Origami/16x16/apps/mattermost.svg

<svg width="16" height="16" version="1.1" viewBox="0 0 16 16" xmlns="http://www.w3.org/2000/svg">
 <circle cx="8" cy="8" r="8" style="fill:#248afd"/>
 <path d="m8 2c-3.3137085 0-6 2.6862915-6 6 0 3.313708 2.6862915 6 6 6 3.313708 0 6-2.686292 6-6-0.0026-1.7041513-0.729797-3.3267904-2-4.4628906v3.4628906c-0.04428 0.3390715-0.0074 0.6820986 0 1 0 2.209139-1.790861 4-4 4s-4-1.790861-4-4c-0.0161321-0.4507402 0.014961-0.8625508 0.0136719-1.2910156 0.006975-0.0862317 0.0167458-0.1722144 0.0292969-0.2578125 0.0073699-0.039393 0.0088101-0.080165 0.0175781-0.1191407 0.1869344-1.1089638 0.8320671-2.0880059 1.7773437-2.6972656h0.00195l2.1660188-1.6347656z" style="fill:#ffffff"/>
 <path d="m 10,3 -3.2363281,2.4414062 -0.00195,0.00977 a 2,2 0 0 0 -0.7832032,1.5859375 2,2 0 0 0 2,2 2,2 0 0 0 2,-2 A 2,2 0 0 0 9.9765625,7 L 10,7 10,3 Z" style="fill:#ffffff"/>
</svg>

<svg xmlns="http://www.w3.org/2000/svg" width="16" height="16" version="1.1" viewBox="0 0 16 16">
 <circle style="fill:#248afd" cx="8" cy="8" r="8"/>
 <path style="fill:#ffffff" d="M 8,2 C 4.6862915,2 2,4.6862915 2,8 c 0,3.313708 2.6862915,6 6,6 3.313708,0 6,-2.686292 6,-6 C 13.9974,6.2958487 13.270203,4.6732096 12,3.5371094 L 12,7 c -0.04428,0.3390715 -0.0074,0.6820986 0,1 0,2.209139 -1.790861,4 -4,4 C 5.790861,12 4,10.209139 4,8 3.9838679,7.5492598 4.014961,7.1374492 4.0136719,6.7089844 4.0206469,6.6227527 4.0304177,6.53677 4.0429688,6.4511719 4.0503387,6.4117789 4.0517789,6.3710069 4.0605469,6.3320312 4.2474813,5.2230674 4.892614,4.2440253 5.8378906,3.6347656 l 0.00195,0 L 8.0058594,2 Z"/>
 <path style="fill:#ffffff" d="m 10,3 -3.2363281,2.4414062 -0.00195,0.00977 a 2,2 0 0 0 -0.7832032,1.5859375 2,2 0 0 0 2,2 2,2 0 0 0 2,-2 A 2,2 0 0 0 9.9765625,7 L 10,7 10,3 Z"/>
</svg>
